X:2478
T:Cancioneiro de Casto Sampedro: N\'umero 317
T:Muiñeira de Poio
O:Galicia (Spain)
B:Cancioneiro de Casto Sampedro
Z:Transcrito por Jos\'e J. Presedo
Z:Covertido de Midi a abc por Antonio-Nil
N:http://www.arrakis.es/~jpresedo/
M: 4/4
L: 1/8
Q:1/4=180
K:F % 1 flats
z4 zB d/2B/2-[B/2A/2-]A/2|BG2B B/2A/2-[A/2G/2-]G/2 AF-|FA GE GF DF|G/2E/2C4B d/2B/2-[B/2A/2-]A/2|
BG2B B/2A/2-[A/2G/2-]G/2 AF-|FA GE GF DF|G/2E/2C3 CC F/2[G/2F/2][G/2F/2]A/2|GE/2[F/2E/2] [F/2E/2]G/2F D/2[E/2D/2][E/2D/2]F/2 EC/2[D/2C/2]|
[D/2C/2]E/2C GE GF DF|A/2[G/2E/2]C3 CG/2C/2- [F/2C/2][G/2F/2][G/2F/2]A/2|GE/2[F/2E/2] [F/2E/2]G/2F D/2[E/2D/2][E/2D/2]F/2 EC/2[D/2C/2]|[D/2C/2]E/2C G3/2E/2 CF3/2D/2=B,|
C3C3/2E/2C F3/2D/2|=B,C3/2D/2C A/2[G/2E/2]C3|FE G3/2F/2 DF3/2E/2=B,|D2 CC3/2E/2C G/2F/2-[F/2D/2-]D/2|
=B,C3/2D/2C A/2[G/2E/2]C3|=B,C A3/2G/2 EG3/2F/2D|C4 zB d/2B/2-[B/2A/2-]A/2|BG2B B/2A/2-[A/2G/2-]G/2 AF-|
FA GE GF DF|G/2E/2C4B d/2B/2-[B/2A/2-]A/2|BG2B B/2A/2-[A/2G/2-]G/2 AF-|FA GE GF DF|
G/2E/2C3 CC F/2[G/2F/2][G/2F/2]A/2|GE/2[F/2E/2] [F/2E/2]G/2F D/2[E/2D/2][E/2D/2]F/2 EC/2[D/2C/2]|[D/2C/2]E/2C GE GF DF|A/2[G/2E/2]C3 CG/2C/2- [F/2C/2][G/2F/2][G/2F/2]A/2|
GE/2[F/2E/2] [F/2E/2]G/2F D/2[E/2D/2][E/2D/2]F/2 EC/2[D/2C/2]|[D/2C/2]E/2C G3/2E/2 CF3/2D/2=B,|C3C3/2E/2C F3/2D/2|=B,C3/2D/2C A/2[G/2E/2]C3|
FE G3/2F/2 DF3/2E/2=B,|D2 CC3/2E/2C G/2F/2-[F/2D/2-]D/2|=B,C3/2D/2C A/2[G/2E/2]C3|=B,C A3/2G/2 EG3/2F/2D|
C4 


